outputs/icons/action/calendar_range_sharp.svg

<svg xmlns="http://www.w3.org/2000/svg" width="1200" height="1200" fill="none"><g fill="#000" clip-path="url(#a)"><path d="M850 725 725 875V775H475v100L350 725l125-150v100h250V575z"/><path fill-rule="evenodd" d="M400 100v100h400V100h100v100h150v900H150V200h150V100zM250 450v550h700V450z"/></g><defs><clipPath id="a"><path fill="#fff" d="M0 0h1200v1200H0z"/></clipPath></defs></svg>

<svg width="1200" height="1200" viewBox="0 0 1200 1200" fill="none" xmlns="http://www.w3.org/2000/svg"><g clip-path="url(#clip0_133_411)"><path fill-rule="evenodd" d="M900 200H1050V1100H150V200H300V100H400V200H800V100H900V200ZM250 1000H950V450H250V1000ZM725 875V775H475V875L350 725L475 575V675H725V575L850 725L725 875Z" fill="#1D1E23"/></g><defs><clipPath id="clip0_133_411"><path width="24" fill="white" d="M0 0H1200V1200H0V0z"/></clipPath></defs></svg>
